X:1
T:Etude I
T:Etude I.
T:24 Etudes, Op.29
T:H.Bertini
C:H.Bertini
%%score { ( 1 3 ) | 2 }
L:1/8
Q:1/4=146
M:4/4
K:C
V:1 treble nm="Piano" snm="Pno."
V:3 treble 
V:2 bass 
V:1
!f!"^Allegro" [CEc]4 ([Ge]2 [Fd]2 | [Ec]) (C/D/ E/F/G/A/ B/c/d/e/ f/g/a/b/ | %2
 c'2) ([ce]2 [Bd]2 [_Bg-]2 | [Ag]2 f2 e2 [^ca]2 | [df]) z z2 ([fa]2 [eg]2 | %5
 [df]) (D/E/ F/G/A/B/ ^c/d/e/f/ g/a/b/^c'/ | d'2) (^c'/d'/e'/d'/ a2 d'/=c'/b/a/ | %7
 g2 a/g/f/e/ d2 g/f/e/d/ | c2) z2 ([Ge]2 [Fd]2 | [Ec]) (C/D/ E/F/G/A/ B/c/d/e/ f/g/a/b/ | %10
 c'2) (b/c'/d'/c'/ e'/d'/c'/b/ a/g/^f/e/ | d2 e/d/c/B/ A2 d/c/B/A/ | G4) ([db]2 [ca]2 | %13
 [Bg]) (G,/A,/ B,/C/D/E/ ^F/G/A/B/ c/d/e/^f/ | g2) z2 ([Ac]2 [Bd]2 | %15
 [ce]2)!8va(! (a'/g'/f'/e'/ d'/c'/b/a/ g/f/e/d/!8va)! | c) z z2 ([eg]2 [df]2 | %17
 [ce]2) z2 [ec']2 [db]2 | c2 c2 _B4 | A4 G2 [_Be]2 | [Af] (F/G/ A/_B/c/d/ e/f/g/a/ _b/c'/d'/e'/ | %21
 f') (D/E/ F/G/A/=B/ ^c/d/e/f/ g/a/=b/^c'/ | d'2) (!>!d'4 x2 | a2 g2 ^f4 | %24
 [ge']) z z2 ([gb]2 [^fa]2 | [eg]) (E/^F/ G/A/B/^c/ ^d/e/^f/g/ a/b/^c'/^d'/ | e'2) !>!e'4 !>!d'2- | %27
 d'2 c'4 b2 | e!8va(! (c''/b'/ a'/g'/f'/e'/ d'/c'/b/a/ g/f/e/d/!8va)! | %29
 c2) (B/c/d/c/ ^G/A/B/A/ D/F/=G/F/ | E) (e'/d'/ c'/b/a/g/ f/e/d/c/ B/A/G/F/ | %31
 E2)!ff! ([Ec]2 [DAc]2 [DGB]2 | [EGc]2) z2 (A2 c2 | G2 c2 d2 ed | c2 (G2) A2 c2 | G2 c2 d2 ed | %36
 [Ec]) z z2 z2 (G,/A,/B,/G,/ | C2) z2 z2 (G,/A,/B,/G,/ | C) z (G,/A,/B,/G,/ C) z (G,/A,/B,/G,/ | %39
 C) z z2 !>![G,E]2 z2 | !>!C8 |] %41
V:2
 .C,(C,,/D,,/ E,,/F,,/G,,/A,,/ B,,/C,/D,/E,/ F,/G,/A,/B,/ | C) z z2 ([G,E]2 [F,D]2 | %2
 [E,C]2) C/D/E/F/ G2 G,/A,/_B,/C/ | D2 D,/E,/F,/G,/ A,2 (A,,2 | %4
 .D,)(D,,/E,,/ F,,/G,,/A,,/B,,/ ^C,/D,/E,/F,/ G,/A,/B,/^C/ | D) z z2 ([A,F]2 [G,E]2 | %6
 [F,D]2) z2 [^F,CD]2 z2 | [G,CE]2 z2 [G,B,F]2 z2 | %8
 [CE] (C,,/D,,/ E,,/F,,/G,,/A,,/ B,,/C,/D,/E,/ F,/G,/A,/B,/ | C) z z2 ([G,E]2 [F,D]2 | %10
 [E,C]2) z2 [C,G,A,]2 z2 | [D,G,B,]2 z2 [D,^F,C]2 z2 | %12
 [G,B,] (G,,,/A,,,/ B,,,/C,,/D,,/E,,/ ^F,,/G,,/A,,/B,,/ C,/D,/E,/^F,/ | G,) z z2 [B,D]2 [A,C]2 | %14
 [G,B,] z (G=F/E/ D/C/B,/A,/ G,/F,/E,/D,/ | C,2) ([E,C]2 [F,CD]2) ([G,B,F]2 | %16
 [CE]) (C,,/D,,/ E,,/F,,/G,,/A,,/ B,,/C,/D,/E,/ F,/G,/A,/B,/ | %17
 C) (A,,/B,,/ C,/D,/E,/^F,/ ^G,/A,/B,/C/ D/E/^F/^G/ | A2) =F,/=G,/A,/_B,/ C2 C,/D,/_E,/=E,/ | %19
 F,2 D,2 _B,,2 C,2 | F,, z z2 ([A,C]2 [G,_B,]2 | [F,A,]) z z2 ([F,A,]2 [E,G,]2 | %22
 [D,F,]2)[K:treble] (D/E/F/G/ A2) (A,/B,/C/D/ | E2) (E/^F/G/A/ B2)[K:bass] (B,2 | %24
 E)!f! (E,,/^F,,/ G,,/A,,/B,,/^C,/ ^D,/E,/^F,/G,/ A,/B,/^C/^D/ | E) z z2[K:treble] ([GB]2 [^FA]2 | %26
 [EG]2) (E/^F/G/A/ B2)[K:bass] (G,/A,/_B,/=B,/ | C2) (^F,/G,/A,/F,/ G,2 G,,2 | %28
 C,) (C,,/D,,/ E,,/F,,/G,,/A,,/ B,,/C,/D,/E,/ F,/G,/A,/B,/ | C2) ([E,G,]2 [F,A,]2 [G,B,]2 | %30
 C) (C,,/D,,/ E,,/F,,/G,,/A,,/ B,,/C,/D,/E,/ F,/G,/A,/B,/ | C2) [A,,A,]2 [F,,F,]2 [G,,G,]2 | %32
 [C,,C,]2!p! (B,,/C,/B,,/C,/ C,,2) (B,,/C,/B,,/C,/ | C,,2) (B,,/C,/B,,/C,/ C,,2) (B,,/C,/B,,/C,/ | %34
 C,,2) (B,,/C,/B,,/C,/ C,,2) (B,,/C,/B,,/C,/ | C,,2) (B,,/C,/B,,/C,/ C,,2) (B,,/C,/B,,/C,/ | %36
 C,,2) (B,,/C,/B,,/C,/ C,,2) [C,-F,]2 | [C,E,] z B,,/C,/B,,/C,/ C,,2 [C,-F,]2 | %38
 [C,E,] z [C,-F,]2 [C,E,] z [C,-F,]2 | [C,E,] z z2 [C,,C,]2 z2 | [C,,C,E,]8 |] %41
V:3
 x8 | x8 | x8 | x2 !>!d4 x2 | x8 | x8 | x8 | x8 | x8 | x8 | x8 | x8 | x8 | x8 | x8 | %15
 x2!8va(! x6!8va)! | x8 | x8 | a2 !>!a4 !>!g2- | g2 !>!f4 x2 | x8 | x8 | x2 f2 e2 !>![a-c']2 | %23
 b2 !>!e'4!f! ^d'2 | x8 | x8 | x2 g2 ^f2 =f2 | e2 _e2 d2 f2 | c'!8va(! x7!8va)! | x8 | x8 | x8 | %32
 x4 F4 | E4 F4 | E4 F4 | E4 F4 | x8 | x8 | x8 | x8 | x8 |] %41

